assets/icons/attach.svg

<svg xmlns="http://www.w3.org/2000/svg" viewBox="0 0 24 24" role="presentation" aria-hidden="true"><path fill-rule="evenodd" clip-rule="evenodd" d="M11.481 4.98288C12.2333 4.25636 13.2408 3.85434 14.2865 3.86343C15.3323 3.87252 16.3326 4.29198 17.0721 5.03147C17.8116 5.77095 18.2311 6.7713 18.2401 7.81706C18.2492 8.86281 17.8472 9.8703 17.1207 10.6225L17.1188 10.6245L11.7731 16.1136C11.7727 16.1139 11.7724 16.1143 11.772 16.1146C11.5582 16.3358 11.3024 16.5122 11.0197 16.6337C10.7365 16.7553 10.432 16.8194 10.1238 16.822C9.81562 16.8247 9.51 16.766 9.22477 16.6493C8.93953 16.5326 8.68039 16.3603 8.46247 16.1423C8.24455 15.9244 8.07222 15.6653 7.95552 15.38C7.83882 15.0948 7.78009 14.7892 7.78277 14.481C7.78545 14.1728 7.84948 13.8683 7.97111 13.5851C8.09194 13.3038 8.26722 13.0493 8.48683 12.836L13.9742 7.34867C14.2294 7.09348 14.6431 7.09348 14.8983 7.34867C15.1535 7.60386 15.1535 8.0176 14.8983 8.2728L9.40727 13.7638L9.39917 13.7718C9.30232 13.8653 9.22506 13.9772 9.17192 14.1009C9.11878 14.2247 9.0908 14.3577 9.08963 14.4924C9.08846 14.627 9.11412 14.7605 9.16511 14.8852C9.21609 15.0098 9.29139 15.123 9.3866 15.2182C9.48181 15.3134 9.59503 15.3887 9.71965 15.4397C9.84427 15.4907 9.9778 15.5163 10.1124 15.5152C10.2471 15.514 10.3801 15.486 10.5039 15.4329C10.6276 15.3797 10.7395 15.3025 10.833 15.2056L10.8349 15.2037L16.1806 9.7146C16.181 9.71428 16.1813 9.71396 16.1816 9.71364C16.6694 9.208 16.9394 8.53105 16.9333 7.82841C16.9272 7.12533 16.6452 6.45277 16.148 5.95559C15.6508 5.45841 14.9782 5.1764 14.2752 5.17029C13.5752 5.16421 12.9008 5.43206 12.3957 5.91641L7.05461 11.3991L7.0486 11.4052C6.23293 12.2208 5.77468 13.3271 5.77468 14.4807C5.77468 15.6342 6.23293 16.7405 7.0486 17.5562C7.86428 18.3719 8.97058 18.8301 10.1241 18.8301C11.2777 18.8301 12.384 18.3719 13.1996 17.5562L18.4169 12.3506C18.6724 12.0957 19.0861 12.0962 19.341 12.3517C19.5959 12.6071 19.5955 13.0209 19.34 13.2758L14.1238 18.4803C14.1237 18.4804 14.1238 18.4803 14.1238 18.4803C13.063 19.541 11.6242 20.137 10.1241 20.137C8.62396 20.137 7.18525 19.5411 6.12448 18.4803C5.06371 17.4196 4.46777 15.9808 4.46777 14.4807C4.46777 12.982 5.06254 11.5446 6.12137 10.4842L11.4669 4.99692C11.4716 4.99217 11.4763 4.98749 11.481 4.98288Z" fill="currentColor"/></svg>

<svg xmlns="http://www.w3.org/2000/svg" aria-hidden="true" viewBox="0 0 24 24"><path fill="currentColor" fill-rule="evenodd" d="M11.481 4.983a3.989 3.989 0 0 1 5.64 5.64l-.002.002-5.346 5.489h-.001a2.32 2.32 0 1 1-3.285-3.278l5.487-5.487a.653.653 0 1 1 .924.924l-5.49 5.49-.009.009a1.014 1.014 0 1 0 1.434 1.434l.002-.002 5.346-5.49a2.682 2.682 0 0 0-3.785-3.798L7.055 11.4l-.006.006a4.35 4.35 0 1 0 6.15 6.151l5.218-5.205a.653.653 0 0 1 .923.925l-5.216 5.204a5.657 5.657 0 0 1-8.003-7.996l5.346-5.487z" clip-rule="evenodd"/></svg>
